svg/color/dison.svg

<svg width="40" height="40" viewBox="0 0 40 40" fill="none" xmlns="http://www.w3.org/2000/svg">
<g clip-path="url(#clip0_820_3771)">
<path d="M20 0C31.0457 0 40 8.9543 40 20C40 31.0457 31.0457 40 20 40C8.95431 40 7.90517e-06 31.0457 0 20C6.58765e-07 8.95431 8.95431 1.97595e-06 20 0Z" fill="#D9D9D9"/>
<path d="M26 6C30.4183 6 34 9.58172 34 14V26C34 30.4183 30.4183 34 26 34H14C9.58172 34 6 30.4183 6 26V14C6 9.58172 9.58172 6 14 6H26Z" fill="black"/>
<path d="M14.122 11.8504C15.8885 11.7851 17.5595 12.0913 19.2702 12.608C20.2494 12.9013 21.5329 13.3942 22.4708 13.8434C23.1433 14.1651 24.2053 14.7592 24.8016 15.1471C24.99 15.2705 26.0902 16.0722 26.2607 16.2132C26.6174 16.5024 27.0837 16.9187 27.4204 17.2516C28.0738 17.8945 28.8867 18.8793 29.2824 19.6605C29.3762 19.8487 29.4505 20.033 29.5721 20.2496C29.6143 20.3235 29.796 20.7686 29.826 20.8974C29.8554 21.0241 29.8984 21.2102 29.9049 21.2181C29.914 21.287 29.9967 21.6679 29.9904 21.8162C30.0294 22.1666 29.9379 22.8294 29.9228 22.9173C29.8938 23.1187 29.7406 23.5835 29.7161 23.6408C29.5923 23.9223 29.4707 24.1552 29.341 24.3854C29.1195 24.7808 28.5945 25.4071 28.2814 25.6753C27.1206 26.6718 25.3223 27.2396 23.7794 27.4266C22.7335 27.5522 21.5311 27.5329 20.4217 27.3297C20.0455 27.2608 19.4881 27.1344 19.4736 27.1312C19.4736 27.133 19.4742 27.3569 19.4557 27.5153C19.4471 27.5864 19.3917 27.7774 19.3613 27.8392C19.2801 28.0044 19.1486 28.0895 18.9568 28.1256C18.7245 28.1698 18.4777 28.1832 18.2627 28.0931C17.9105 27.9448 17.7831 27.6168 17.7223 27.241C17.6725 26.9389 17.6208 26.415 17.6206 26.4126C17.6206 26.4126 17.3573 26.2888 17.1372 26.1798C16.462 25.8492 15.8201 25.4499 15.2597 25.0372C15.1046 24.9233 14.4374 24.3684 14.2889 24.2291C13.8755 23.8413 13.5035 23.4528 13.2204 22.9555C13.0003 22.5672 12.937 22.221 13.104 21.8097C13.3355 21.2364 14.1636 20.8037 14.7308 20.5573C15.1478 20.3748 16.4419 19.9552 16.9801 19.8777C17.2334 19.8417 17.6265 19.7728 17.6515 19.7565C17.6615 19.7493 17.6683 19.7423 17.6751 19.7337C17.6874 19.7147 17.7084 19.1483 17.7044 18.9411C17.6999 18.7365 17.8566 17.3953 17.907 17.1116C17.9343 16.9571 18.0517 16.3661 18.1715 16.2116C18.2492 16.1073 18.3878 16.1149 18.5003 16.1847C19.1166 16.5648 19.3032 17.8848 19.3491 18.5569C19.3768 18.966 19.3906 19.5823 19.3906 19.5823C19.3906 19.5823 20.0984 19.5621 20.534 19.5734C20.9563 19.5838 21.4222 19.6505 21.8613 19.7199C22.4235 19.8082 23.5192 20.0452 24.1473 20.362C24.665 20.6219 25.1488 21.0612 25.3053 21.5257C25.4514 21.9514 25.4287 22.245 25.2068 22.6292C24.9578 23.0634 24.4859 23.3854 24.0073 23.4121C23.8644 23.4215 23.3283 23.3506 23.1634 23.2241C23.0981 23.1728 23.1017 23.0815 23.1487 23.0198C23.1664 22.9973 23.4162 22.8671 23.5646 22.7887C23.6384 22.7487 23.7004 22.7058 23.7575 22.6536C23.8808 22.5451 23.9918 22.4268 23.9796 22.289C23.9624 22.1088 23.7707 21.9973 23.5874 21.9261C22.7296 21.5882 21.0174 21.3066 20.1889 21.2579C19.8649 21.239 19.4044 21.223 19.4044 21.223L19.5021 25.7607C19.512 25.7626 19.8873 25.834 20.1832 25.882C20.3566 25.9072 21.0858 25.9722 21.2794 25.9772C22.7564 26.0159 24.4049 25.8854 25.7602 25.2488C26.355 24.9709 26.9009 24.6255 27.3138 24.1575C27.8592 23.5363 28.1448 22.6881 28.069 21.8024C27.9859 20.8329 27.2995 19.6847 26.7523 18.985C25.3042 17.1357 22.8224 15.6159 20.6398 14.7247C18.4105 13.8152 16.2076 13.2911 13.8413 13.2037C13.2318 13.1821 11.9017 13.2128 11.2306 13.3974C11.1336 13.424 11.0375 13.4566 10.9482 13.4756C10.8776 13.4926 10.7678 13.5387 10.7366 13.5626C10.7209 13.5769 10.7037 13.5939 10.7024 13.5952C10.7046 13.5963 10.7454 13.618 10.7838 13.6351C10.8553 13.6661 11.1543 13.6837 11.3095 13.7116C11.4474 13.7377 11.5934 13.8113 11.6497 13.9126C11.7041 14.008 11.7121 14.0836 11.6465 14.1632C11.494 14.3484 10.9201 14.3159 10.6683 14.2772C10.406 14.2348 10.08 14.1559 10.0197 13.9288C9.95077 13.6617 10.0774 13.3997 10.2158 13.1574C10.4935 12.6734 10.8899 12.421 11.4723 12.2638C12.2982 12.0385 13.3416 11.8801 14.122 11.8504ZM17.6198 21.297C17.6027 21.2982 16.939 21.3448 16.4813 21.3955C15.8901 21.4581 14.7798 21.6489 14.1399 21.8773C13.9471 21.9439 13.5563 22.1065 13.5223 22.3021C13.4878 22.5066 13.6138 22.6649 13.7558 22.8302C13.8379 22.9256 14.3004 23.3671 14.4297 23.4747C14.9737 23.9248 16.0762 24.6212 16.8898 24.9591C17.1648 25.0729 17.6206 25.2343 17.6295 25.2374C17.6291 25.2206 17.5951 23.9241 17.6019 22.6471C17.6046 21.9732 17.6195 21.3077 17.6198 21.297Z" fill="white"/>
</g>
<defs>
<clipPath id="clip0_820_3771">
<rect width="40" height="40" fill="white"/>
</clipPath>
</defs>
</svg>

<svg xmlns="http://www.w3.org/2000/svg" width="40" height="40" fill="none" viewBox="0 0 40 40"><g clip-path="url(#dison_svg-a)"><path fill="#D9D9D9" d="M20 0c11.046 0 20 8.954 20 20s-8.954 20-20 20S0 31.046 0 20 8.954 0 20 0"/><path fill="#000" d="M26 6a8 8 0 0 1 8 8v12a8 8 0 0 1-8 8H14a8 8 0 0 1-8-8V14a8 8 0 0 1 8-8z"/><path fill="#fff" d="M14.122 11.85c1.767-.065 3.438.241 5.148.758.98.293 2.263.786 3.2 1.235.673.322 1.735.916 2.332 1.304.188.123 1.288.925 1.459 1.066.356.29.823.706 1.16 1.039.653.643 1.466 1.627 1.861 2.409.094.188.169.372.29.589.042.073.224.519.254.647.03.127.072.313.079.321.009.069.092.45.085.598.04.35-.052 1.013-.067 1.101a5 5 0 0 1-.207.724 8 8 0 0 1-.375.744c-.222.396-.747 1.022-1.06 1.29-1.16.997-2.959 1.565-4.502 1.752a11.6 11.6 0 0 1-3.357-.097c-.377-.07-.934-.196-.948-.199 0 .002 0 .226-.018.384a1.6 1.6 0 0 1-.095.324c-.08.165-.212.25-.404.287-.233.044-.48.057-.694-.033-.353-.148-.48-.476-.54-.852a17 17 0 0 1-.102-.828s-.264-.124-.484-.233c-.675-.33-1.317-.73-1.877-1.143a22 22 0 0 1-.971-.808c-.413-.388-.785-.776-1.069-1.273-.22-.389-.283-.735-.116-1.146.232-.574 1.06-1.006 1.627-1.253.417-.182 1.71-.602 2.25-.68.252-.035.645-.104.67-.12a.1.1 0 0 0 .024-.023c.012-.02.033-.586.03-.793-.005-.204.152-1.546.202-1.83.027-.154.145-.745.265-.9.077-.104.216-.096.328-.026.617.38.803 1.7.85 2.372.027.409.04 1.025.04 1.025s.708-.02 1.144-.009c.422.01.888.078 1.327.147.563.088 1.658.325 2.286.642.518.26 1.002.7 1.158 1.164.146.425.124.719-.098 1.103-.25.434-.721.756-1.2.783-.143.01-.679-.061-.844-.188-.065-.051-.061-.143-.014-.204.017-.023.267-.153.416-.231a1 1 0 0 0 .192-.135c.124-.109.235-.227.223-.365-.018-.18-.21-.292-.393-.363-.857-.338-2.57-.62-3.398-.668a41 41 0 0 0-.785-.035l.098 4.538c.01.002.385.073.681.121.174.025.903.09 1.096.095 1.477.039 3.126-.092 4.481-.728.595-.278 1.14-.623 1.554-1.091.545-.622.83-1.47.755-2.356-.083-.97-.77-2.117-1.317-2.817-1.448-1.85-3.93-3.37-6.112-4.26-2.23-.91-4.432-1.434-6.799-1.521-.61-.022-1.94.009-2.61.193-.097.027-.194.06-.283.079a.8.8 0 0 0-.211.087l-.035.032c.003.001.043.023.082.04.071.031.37.049.525.077.138.026.284.1.34.2.055.096.063.172-.002.251-.153.185-.727.153-.979.114-.262-.042-.588-.121-.648-.348-.07-.267.057-.53.196-.772.277-.484.674-.736 1.256-.893a13 13 0 0 1 2.65-.414m3.498 9.447c-.017.001-.681.048-1.139.098-.59.063-1.701.254-2.341.482-.193.067-.584.23-.618.425-.034.205.092.363.234.528.082.096.544.537.674.645.544.45 1.646 1.146 2.46 1.484a18 18 0 0 0 .74.278c0-.016-.035-1.313-.028-2.59.003-.674.017-1.34.018-1.35"/></g><defs><clipPath id="dison_svg-a"><path fill="#fff" d="M0 0h40v40H0z"/></clipPath></defs></svg>
